X:161
T:John of Paris New Way. JGi.161
M:6/8
L:1/8
Q:3/8=110
S:Joshua Gibbons MS,1823,Tealby,Lincs.
R:jig
O:Tealby,Lincolnshire
Z:VMP/R.Greig, 2009
K:F
c|f2f fef|d2ga2g|fed cde|fga afc|f2f fef|d2fa2g|fed cde|f3-f2:|
|:A/B/|c3caf|d3dbg|fed cde|fga gAB|c3caf|d3dgf|e2e ecd|”DC”c3-c2|]

